X:75
T: Dui hua
N: C1573
O: China,Shandong, Weifang
S: III, 380]
R: Xiaodiao. Chang huahui]
M: 2/4
L: 1/16
K: F
c4d2f2 | A2AGF4 | d2cde2d2 | c8 |
c3df2g2 | d2edc4 | d2B2A2G2 | A8 |
A2AGF4 | d2cdd3f | F3DF2c2 | A2AGA4 |
d2dcd2d2 | d2F4G2 | A2cAG2AG | F8 |
d4A4 | d4A4 | d2edc2BA | G2AGF2D2 |
d2dcd2d2 | d2F4G2 | A2cAG2AG | F8

@@@ Tune index: 6630
